X:1
T:Title
L:1/8
Q:1/4=100
M:4/4
K:G
V:1 treble nm="Church Organ, Staff"
V:1
 D2 G2 G2 G2 | G2 GF GA B2 | G2 c2 B2 A2 | G2 F6 | F2 A2 A2 A2 | F2 EF GE F2 | A2 A2 GF E2 | %7
w: By~Arthur~Sullivan * * *|||||||
 E2 D6 | D2 d2- d/ z/ c B2 | B2 BA GF G2 | E2 c2- c/ z/ B A2 | G2 F6 | GF E2 A2 F2 | BA G2 c2 A2 | %14
w: |||||||
 dcBA B2 A2 | A2 G6 |] %16
w: ||

